X: 745
T: Ainya's
R: reel
M: 4/4
K: Amajor
|:AEEE ecBA|BcBA FDDD|AEEE ABce|fcec B2ag|
feee ceAB-|BABc BAFA|EAAA cBAB-|BABc F2FE:|
|:EFFF AFFF|cFFF BFEF|EFFF AFFF|cBAB- BABc|
EFFF AFFF|cFFF BFEF|cBAB- BABc:|
|:Fccc fecB-|BABc BAFE|Fccc fecB-|BABc e2ag|
feee ceAB-|BABc BAFA|EAAA cBAB-|BABc F2FE:|

